;FLAVOR:Marlin
;TIME:10552
;Filament used: 8.99559m
;Layer height: 0.2
;MINX:41.053
;MINY:43.936
;MINZ:0.2
;MAXX:193.053
;MAXY:155.936
;MAXZ:5
;Generated with Cura_SteamEngine master
M140 S60
M105
M190 S60
M104 S200
M105
M109 S200
M82 ;absolute extrusion mode
; Ender 3 Custom Start G-code
G92 E0 ; Reset Extruder
G28 ; Home all axes
G1 Z2.0 F3000 ; Move Z Axis up little to prevent scratching of Heat Bed
G1 X0.1 Y20 Z0.3 F5000.0 ; Move to start position
G1 X0.1 Y200.0 Z0.3 F1500.0 E15 ; Draw the first line
G1 X0.4 Y200.0 Z0.3 F5000.0 ; Move to side a little
G1 X0.4 Y20 Z0.3 F1500.0 E30 ; Draw the second line
G92 E0 ; Reset Extruder
G1 Z2.0 F3000 ; Move Z Axis up little to prevent scratching of Heat Bed
G1 X5 Y20 Z0.3 F5000.0 ; Move over to prevent blob squish
G92 E0
G92 E0
G1 F1500 E-6.5
;LAYER_COUNT:25
;LAYER:0
M107
G0 F6000 X73.924 Y47.51 Z0.2
;TYPE:SKIRT
G1 F1500 E0
G1 F1200 X74.411 Y47.039 E0.02253
G1 X75.112 Y46.416 E0.05373
G1 X75.864 Y45.856 E0.08491
G1 X76.661 Y45.361 E0.11612
G1 X77.497 Y44.936 E0.14731
G1 X78.366 Y44.584 E0.17849
G1 X79.262 Y44.307 E0.20969
G1 X80.179 Y44.108 E0.24089
G1 X81.109 Y43.987 E0.27209
G1 X81.687 Y43.952 E0.29135
G1 X82.072 Y43.942 E0.30416
G1 X82.615 Y43.936 E0.32222
G1 X151.346 Y43.936 E2.60822
G1 X152.205 Y43.947 E2.63679
G1 X153.141 Y44 E2.66797
G1 X154.069 Y44.133 E2.69916
G1 X154.983 Y44.345 E2.73036
G1 X155.876 Y44.633 E2.76157
G1 X156.74 Y44.997 E2.79275
G1 X157.571 Y45.433 E2.82396
G1 X158.361 Y45.938 E2.85515
G1 X159.105 Y46.508 E2.88632
G1 X159.529 Y46.881 E2.90511
G1 X159.681 Y47.022 E2.912
G1 X159.882 Y47.213 E2.92122
G1 X160.142 Y47.469 E2.93336
G1 X189.466 Y76.794 E4.31269
G1 X189.924 Y77.266 E4.33457
G1 X190.548 Y77.966 E4.36576
G1 X191.11 Y78.717 E4.39696
G1 X191.606 Y79.513 E4.42815
G1 X192.032 Y80.348 E4.45933
G1 X192.386 Y81.217 E4.49054
G1 X192.664 Y82.113 E4.52174
G1 X192.865 Y83.029 E4.55293
G1 X192.964 Y83.719 E4.57612
G1 X192.982 Y83.882 E4.58157
G1 X193.047 Y84.955 E4.61732
G1 X193.053 Y85.498 E4.63539
G1 X193.052 Y88.113 E4.72236
G1 X193.042 Y88.83 E4.74621
G1 X192.991 Y89.744 E4.77666
G1 X192.872 Y90.961 E4.81733
G1 X192.861 Y91.152 E4.82369
G1 X192.701 Y92.845 E4.88025
G1 X192.534 Y95.362 E4.96415
G1 X192.438 Y97.884 E5.04809
G1 X192.415 Y100.373 E5.13088
G1 X192.462 Y102.896 E5.21481
G1 X192.581 Y105.427 E5.29909
G1 X192.769 Y107.928 E5.3825
G1 X192.977 Y109.958 E5.45038
G1 X193.004 Y110.264 E5.46059
G1 X193.038 Y110.853 E5.48022
G1 X193.048 Y111.183 E5.4912
G1 X193.053 Y111.516 E5.50227
G1 X193.052 Y114.386 E5.59773
G1 X193.042 Y115.088 E5.62108
G1 X192.989 Y116.024 E5.65226
G1 X192.856 Y116.952 E5.68344
G1 X192.644 Y117.866 E5.71465
G1 X192.356 Y118.759 E5.74586
G1 X191.992 Y119.623 E5.77704
G1 X191.556 Y120.454 E5.80825
G1 X191.051 Y121.244 E5.83944
G1 X190.481 Y121.988 E5.87061
G1 X190.108 Y122.412 E5.88939
G1 X189.967 Y122.564 E5.89629
G1 X189.765 Y122.776 E5.90603
G1 X189.499 Y123.046 E5.91864
G1 X160.192 Y152.352 E7.29712
G1 X159.697 Y152.831 E7.32003
G1 X158.996 Y153.454 E7.35123
G1 X158.245 Y154.015 E7.3824
G1 X157.448 Y154.509 E7.41359
G1 X156.612 Y154.935 E7.4448
G1 X155.743 Y155.287 E7.47598
G1 X154.847 Y155.564 E7.50718
G1 X153.93 Y155.764 E7.53839
G1 X153 Y155.885 E7.56959
G1 X152.419 Y155.92 E7.58894
G1 X152.034 Y155.93 E7.60175
G1 X151.491 Y155.936 E7.61982
G1 X82.604 Y155.935 E9.91101
G1 X81.901 Y155.925 E9.93439
G1 X80.964 Y155.872 E9.96561
G1 X80.036 Y155.739 E9.99679
G1 X79.122 Y155.527 E10.02799
G1 X78.23 Y155.239 E10.05917
G1 X77.365 Y154.875 E10.09038
G1 X76.535 Y154.439 E10.12157
G1 X75.744 Y153.934 E10.15278
G1 X75 Y153.364 E10.18395
G1 X74.55 Y152.966 E10.20393
G1 X74.399 Y152.825 E10.2108
G1 X74.209 Y152.643 E10.21955
G1 X73.933 Y152.372 E10.23242
G1 X44.635 Y123.072 E11.61056
G1 X44.164 Y122.586 E11.63307
G1 X43.54 Y121.886 E11.66425
G1 X42.979 Y121.134 E11.69546
G1 X42.484 Y120.338 E11.72664
G1 X42.058 Y119.502 E11.75784
G1 X41.705 Y118.633 E11.78904
G1 X41.427 Y117.738 E11.82021
G1 X41.227 Y116.821 E11.85143
G1 X41.105 Y115.892 E11.88259
G1 X41.069 Y115.302 E11.90225
G1 X41.059 Y114.917 E11.91506
G1 X41.053 Y114.374 E11.93312
G1 X41.054 Y111.735 E12.0209
G1 X41.064 Y111.037 E12.04411
G1 X41.115 Y110.128 E12.07439
G1 X41.234 Y108.905 E12.11526
G1 X41.245 Y108.72 E12.12143
G1 X41.405 Y107.027 E12.17799
G1 X41.572 Y104.51 E12.26189
G1 X41.668 Y101.988 E12.34583
G1 X41.691 Y99.499 E12.42862
G1 X41.644 Y96.976 E12.51255
G1 X41.525 Y94.445 E12.59682
G1 X41.337 Y91.944 E12.68024
G1 X41.129 Y89.914 E12.74811
G1 X41.102 Y89.613 E12.75816
G1 X41.066 Y88.986 E12.77905
G1 X41.057 Y88.667 E12.78967
G1 X41.053 Y88.357 E12.79998
G1 X41.054 Y85.486 E12.89547
G1 X41.064 Y84.784 E12.91882
G1 X41.117 Y83.848 E12.95
G1 X41.25 Y82.92 E12.98118
G1 X41.462 Y82.006 E13.01239
G1 X41.75 Y81.113 E13.0436
G1 X42.114 Y80.249 E13.07478
G1 X42.55 Y79.418 E13.10599
G1 X43.055 Y78.628 E13.13718
G1 X43.625 Y77.884 E13.16835
G1 X43.998 Y77.46 E13.18713
G1 X44.139 Y77.308 E13.19403
G1 X44.341 Y77.096 E13.20377
G1 X44.607 Y76.826 E13.21637
G1 X73.924 Y47.51 E14.59533
G0 F6000 X74.202 Y47.798
G1 F1200 X74.689 Y47.327 E14.61787
G1 X75.378 Y46.716 E14.6485
G1 X76.117 Y46.167 E14.67911
G1 X76.901 Y45.685 E14.70972
G1 X77.724 Y45.272 E14.74035
G1 X78.58 Y44.933 E14.77097
G1 X79.462 Y44.669 E14.80159
G1 X80.364 Y44.482 E14.83223
G1 X81.7 Y44.352 E14.87688
G1 X82.076 Y44.342 E14.88939
G1 X82.615 Y44.336 E14.90732
G1 X151.346 Y44.336 E17.19332
G1 X152.199 Y44.347 E17.22169
G1 X153.118 Y44.4 E17.25231
G1 X154.029 Y44.533 E17.28293
G1 X154.925 Y44.744 E17.31355
G1 X155.8 Y45.032 E17.34419
G1 X156.646 Y45.395 E17.3748
G1 X157.457 Y45.83 E17.40541
G1 X158.228 Y46.334 E17.43605
G1 X159.257 Y47.175 E17.48025
G1 X159.409 Y47.316 E17.48715
G1 X159.602 Y47.5 E17.49602
G1 X159.859 Y47.752 E17.50799
G1 X189.179 Y77.072 E18.88711
G1 X189.637 Y77.544 E18.90898
G1 X190.249 Y78.232 E18.93961
G1 X190.799 Y78.971 E18.97025
G1 X191.283 Y79.754 E19.00087
G1 X191.697 Y80.576 E19.03148
G1 X192.037 Y81.432 E19.06211
G1 X192.303 Y82.313 E19.09272
G1 X192.491 Y83.214 E19.12333
G1 X192.566 Y83.763 E19.14176
G1 X192.584 Y83.926 E19.14722
G1 X192.647 Y84.959 E19.18164
G1 X192.653 Y85.498 E19.19957
G1 X192.652 Y88.108 E19.28638
G1 X192.642 Y88.825 E19.31023
G1 X192.593 Y89.706 E19.33957
G1 X192.483 Y90.837 E19.37737
G1 X192.463 Y91.114 E19.38661
G1 X192.302 Y92.814 E19.4434
G1 X192.133 Y95.357 E19.52817
G1 X192.04 Y97.83 E19.61048
G1 X192.015 Y100.412 E19.69636
G1 X192.062 Y102.923 E19.77989
G1 X192.181 Y105.44 E19.8637
G1 X192.37 Y107.962 E19.94782
G1 X192.579 Y109.999 E20.01592
G1 X192.606 Y110.298 E20.02591
G1 X192.638 Y110.865 E20.0448
G1 X192.648 Y111.195 E20.05578
G1 X192.653 Y111.516 E20.06646
G1 X192.652 Y114.38 E20.16171
G1 X192.642 Y115.082 E20.18506
G1 X192.589 Y116.001 E20.21568
G1 X192.456 Y116.912 E20.2463
G1 X192.245 Y117.808 E20.27692
G1 X191.957 Y118.683 E20.30756
G1 X191.594 Y119.529 E20.33818
G1 X191.159 Y120.34 E20.36879
G1 X190.655 Y121.111 E20.39942
G1 X189.814 Y122.14 E20.44362
G1 X189.673 Y122.292 E20.45052
G1 X189.479 Y122.496 E20.45988
G1 X189.216 Y122.763 E20.47235
G1 X159.914 Y152.064 E21.8506
G1 X159.419 Y152.543 E21.87351
G1 X158.73 Y153.154 E21.90414
G1 X157.991 Y153.703 E21.93476
G1 X157.207 Y154.186 E21.96539
G1 X156.384 Y154.598 E21.996
G1 X155.529 Y154.938 E22.0266
G1 X154.647 Y155.203 E22.05723
G1 X153.745 Y155.389 E22.08786
G1 X152.406 Y155.52 E22.13261
G1 X152.03 Y155.53 E22.14512
G1 X151.491 Y155.536 E22.16305
G1 X82.609 Y155.535 E24.45408
G1 X81.906 Y155.525 E24.47746
G1 X80.987 Y155.472 E24.50808
G1 X80.076 Y155.339 E24.5387
G1 X79.18 Y155.128 E24.56931
G1 X78.306 Y154.84 E24.59992
G1 X77.459 Y154.477 E24.63057
G1 X76.648 Y154.042 E24.66118
G1 X75.877 Y153.538 E24.69182
G1 X74.823 Y152.673 E24.73717
G1 X74.489 Y152.358 E24.75244
G1 X74.294 Y152.167 E24.76151
G1 X44.922 Y122.794 E26.14311
G1 X44.451 Y122.308 E26.16562
G1 X43.84 Y121.62 E26.19622
G1 X43.29 Y120.881 E26.22686
G1 X42.807 Y120.097 E26.25749
G1 X42.394 Y119.275 E26.28808
G1 X42.053 Y118.419 E26.31873
G1 X41.788 Y117.537 E26.34936
G1 X41.601 Y116.636 E26.37997
G1 X41.469 Y115.289 E26.42498
G1 X41.459 Y114.913 E26.43749
G1 X41.453 Y114.374 E26.45542
G1 X41.454 Y111.741 E26.543
G1 X41.464 Y111.043 E26.56621
G1 X41.513 Y110.166 E26.59543
G1 X41.623 Y109.035 E26.63322
G1 X41.643 Y108.758 E26.64246
G1 X41.804 Y107.058 E26.69926
G1 X41.973 Y104.515 E26.78402
G1 X42.066 Y102.042 E26.86633
G1 X42.091 Y99.46 E26.95222
G1 X42.044 Y96.949 E27.03575
G1 X41.925 Y94.432 E27.11956
G1 X41.736 Y91.91 E27.20367
G1 X41.527 Y89.873 E27.27178
G1 X41.501 Y89.579 E27.2816
G1 X41.466 Y88.975 E27.30172
G1 X41.457 Y88.656 E27.31233
G1 X41.453 Y88.357 E27.32228
G1 X41.454 Y85.492 E27.41757
G1 X41.464 Y84.79 E27.44092
G1 X41.517 Y83.871 E27.47154
G1 X41.65 Y82.96 E27.50216
G1 X41.861 Y82.064 E27.53277
G1 X42.149 Y81.189 E27.56341
G1 X42.512 Y80.343 E27.59403
G1 X42.947 Y79.532 E27.62464
G1 X43.451 Y78.761 E27.65528
G1 X44.292 Y77.732 E27.69948
G1 X44.433 Y77.58 E27.70637
G1 X44.627 Y77.376 E27.71574
G1 X44.89 Y77.109 E27.7282
G1 X74.202 Y47.798 E29.10693
G0 F6000 X74.48 Y48.085
G1 F1200 X74.967 Y47.614 E29.12946
G1 X75.643 Y47.016 E29.15948
G1 X76.37 Y46.479 E29.18954
G1 X77.141 Y46.009 E29.21957
G1 X77.951 Y45.609 E29.24962
G1 X78.793 Y45.283 E29.27965
G1 X79.66 Y45.032 E29.30967
G1 X80.547 Y44.859 E29.33973
G1 X81.714 Y44.752 E29.37871
G1 X82.081 Y44.742 E29.39092
G1 X82.615 Y44.736 E29.40868
G1 X151.346 Y44.736 E31.69468
G1 X152.193 Y44.747 E31.72285
G1 X153.095 Y44.8 E31.75291
G1 X153.988 Y44.932 E31.78293
G1 X154.866 Y45.143 E31.81296
G1 X155.722 Y45.431 E31.843
G1 X156.55 Y45.793 E31.87306
G1 X157.342 Y46.227 E31.9031
G1 X158.092 Y46.73 E31.93313
G1 X158.985 Y47.468 E31.97166
G1 X159.137 Y47.609 E31.97856
G1 X159.323 Y47.786 E31.9871
G1 X159.576 Y48.034 E31.99888
G1 X188.892 Y77.351 E33.37784
G1 X189.35 Y77.823 E33.39972
G1 X189.95 Y78.498 E33.42975
G1 X190.487 Y79.224 E33.45979
G1 X190.959 Y79.994 E33.48983
G1 X191.36 Y80.803 E33.51986
G1 X191.688 Y81.645 E33.54991
G1 X191.94 Y82.512 E33.57994
G1 X192.168 Y83.806 E33.62365
G1 X192.186 Y83.969 E33.6291
G1 X192.247 Y84.964 E33.66226
G1 X192.253 Y85.498 E33.68002
G1 X192.252 Y88.102 E33.76663
G1 X192.242 Y88.819 E33.79048
G1 X192.195 Y89.667 E33.81873
G1 X192.07 Y90.946 E33.86147
G1 X192.065 Y91.076 E33.8658
G1 X191.903 Y92.785 E33.92289
G1 X191.736 Y95.314 E34.00719
G1 X191.64 Y97.846 E34.09146
G1 X191.615 Y100.416 E34.17695
G1 X191.662 Y102.913 E34.26001
G1 X191.783 Y105.49 E34.34582
G1 X191.972 Y107.997 E34.42944
G1 X192.181 Y110.04 E34.49774
G1 X192.207 Y110.331 E34.50746
G1 X192.238 Y110.877 E34.52565
G1 X192.248 Y111.207 E34.53663
G1 X192.253 Y111.516 E34.54691
G1 X192.252 Y114.374 E34.64197
G1 X192.242 Y115.076 E34.66532
G1 X192.189 Y115.978 E34.69537
G1 X192.057 Y116.871 E34.72539
G1 X191.846 Y117.749 E34.75543
G1 X191.558 Y118.605 E34.78547
G1 X191.196 Y119.433 E34.81552
G1 X190.762 Y120.225 E34.84556
G1 X190.259 Y120.975 E34.8756
G1 X189.521 Y121.868 E34.91413
G1 X189.38 Y122.02 E34.92102
G1 X189.193 Y122.216 E34.93003
G1 X188.934 Y122.48 E34.94233
G1 X159.636 Y151.777 E36.3204
G1 X159.141 Y152.256 E36.34331
G1 X158.465 Y152.855 E36.37335
G1 X157.738 Y153.391 E36.40339
G1 X156.967 Y153.861 E36.43342
G1 X156.158 Y154.261 E36.46344
G1 X155.316 Y154.588 E36.49348
G1 X154.448 Y154.84 E36.52355
G1 X153.562 Y155.013 E36.55357
G1 X152.392 Y155.12 E36.59265
G1 X152.025 Y155.13 E36.60486
G1 X151.491 Y155.136 E36.62262
G1 X82.615 Y155.135 E38.91345
G1 X81.912 Y155.125 E38.93683
G1 X81.01 Y155.072 E38.96688
G1 X80.117 Y154.94 E38.99691
G1 X79.239 Y154.729 E39.02694
G1 X78.383 Y154.441 E39.05698
G1 X77.556 Y154.079 E39.087
G1 X76.764 Y153.645 E39.11704
G1 X76.013 Y153.143 E39.14709
G1 X75.096 Y152.381 E39.18674
G1 X74.769 Y152.072 E39.20171
G1 X74.574 Y151.881 E39.21079
G1 X45.209 Y122.516 E40.59202
G1 X44.738 Y122.03 E40.61453
G1 X44.139 Y121.354 E40.64458
G1 X43.602 Y120.628 E40.67461
G1 X43.131 Y119.857 E40.70466
G1 X42.731 Y119.048 E40.73468
G1 X42.403 Y118.206 E40.76473
G1 X42.151 Y117.339 E40.79476
G1 X41.977 Y116.453 E40.82479
G1 X41.869 Y115.275 E40.86414
G1 X41.859 Y114.908 E40.87635
G1 X41.853 Y114.374 E40.89411
G1 X41.854 Y111.747 E40.98149
G1 X41.864 Y111.049 E41.0047
G1 X41.911 Y110.205 E41.03282
G1 X42.036 Y108.926 E41.07556
G1 X42.041 Y108.796 E41.07989
G1 X42.203 Y107.087 E41.13698
G1 X42.37 Y104.558 E41.22128
G1 X42.466 Y102.026 E41.30556
G1 X42.491 Y99.456 E41.39104
G1 X42.444 Y96.959 E41.47411
G1 X42.323 Y94.382 E41.55991
G1 X42.134 Y91.875 E41.64353
G1 X41.909 Y89.662 E41.71751
G1 X41.899 Y89.545 E41.72142
G1 X41.866 Y88.964 E41.74078
G1 X41.857 Y88.645 E41.75139
G1 X41.853 Y88.357 E41.76097
G1 X41.854 Y85.498 E41.85606
G1 X41.864 Y84.796 E41.87941
G1 X41.917 Y83.894 E41.90946
G1 X42.049 Y83.001 E41.93949
G1 X42.26 Y82.123 E41.96952
G1 X42.548 Y81.267 E41.99956
G1 X42.91 Y80.439 E42.02962
G1 X43.344 Y79.647 E42.05965
G1 X43.847 Y78.897 E42.08969
G1 X44.585 Y78.004 E42.12822
G1 X44.726 Y77.852 E42.13512
G1 X44.913 Y77.656 E42.14413
G1 X45.172 Y77.392 E42.15643
G1 X74.48 Y48.085 E43.53496
G1 F1500 E37.03496
;MESH:base_exportada.3mf
G0 F6000 X160.218 Y82.865
G0 X158.783 Y82.865
G0 X158.953 Y84.792
;TYPE:WALL-INNER
G1 F1500 E43.53496
G1 F1200 X167.153 Y84.792 E43.8077
G1 X167.153 Y73.592 E44.18021
G1 X158.953 Y73.592 E44.45294
G1 X158.953 Y84.792 E44.82546
G0 F6000 X159.353 Y84.392
;TYPE:WALL-OUTER
G1 F1200 X166.753 Y84.392 E45.07158
G1 X166.753 Y73.992 E45.41749
G1 X159.353 Y73.992 E45.66361
G1 X159.353 Y84.392 E46.00952
G1 F1500 E39.50952
G0 F6000 X159.053 Y84.392
G0 X160.952 Y84.962
G0 X160.952 Y83.527
G0 X152.761 Y145.168
G0 X151.719 Y144.126
G0 X82.301 Y144.336
;TYPE:WALL-INNER
G1 F1500 E46.00952
G1 F1200 X52.653 Y114.688 E47.40407
G1 X52.653 Y111.786 E47.50059
G1 X72.153 Y111.786 E48.14916
G1 X72.153 Y88.086 E48.93743
G1 X52.653 Y88.086 E49.586
G1 X52.653 Y85.184 E49.68252
G1 X82.301 Y55.536 E51.07707
G1 X151.805 Y55.536 E53.38878
G1 X181.453 Y85.184 E54.78334
G1 X181.453 Y88.086 E54.87986
G1 X161.953 Y88.086 E55.52843
G1 X161.953 Y111.786 E56.31669
G1 X181.453 Y111.786 E56.96527
G1 X181.453 Y114.688 E57.06179
G1 X151.805 Y144.336 E58.45634
G1 X82.301 Y144.336 E60.76805
G0 F6000 X82.135 Y144.736
;TYPE:WALL-OUTER
G1 F1200 X52.253 Y114.854 E62.17361
G1 X52.253 Y111.386 E62.28895
G1 X71.753 Y111.386 E62.93753
G1 X71.753 Y88.486 E63.69918
G1 X52.253 Y88.486 E64.34776
G1 X52.253 Y85.018 E64.4631
G1 X82.135 Y55.136 E65.86866
G1 X151.971 Y55.136 E68.19142
G1 X181.853 Y85.018 E69.59697
G1 X181.853 Y88.486 E69.71232
G1 X162.353 Y88.486 E70.36089
G1 X162.353 Y111.386 E71.12255
G1 X181.853 Y111.386 E71.77112
G1 X181.853 Y114.854 E71.88647
G1 X151.971 Y144.736 E73.29203
G1 X82.135 Y144.736 E75.61478
G0 F6000 X82.303 Y144.33
G0 X82.461 Y143.946
;TYPE:SKIN
G1 F1200 X53.043 Y114.528 E76.99851
G1 X53.043 Y112.176 E77.07674
G1 X72.543 Y112.176 E77.72531
G1 X72.543 Y87.696 E78.53952
G1 X53.043 Y87.696 E79.18809
G1 X53.043 Y85.344 E79.26632
G1 X82.461 Y55.926 E80.65005
G1 X151.645 Y55.926 E82.95112
G1 X181.063 Y85.344 E84.33486
G1 X181.063 Y87.696 E84.41308
G1 X161.563 Y87.696 E85.06166
G1 X161.563 Y112.176 E85.87586
G1 X181.063 Y112.176 E86.52444
G1 X181.063 Y114.528 E86.60267
G1 X151.645 Y143.946 E87.9864
G1 X82.461 Y143.946 E90.28747
G1 F1500 E83.78747
G0 F6000 X82.264 Y144.143
G0 X151.719 Y144.126
G0 X152.761 Y145.168
G0 X160.952 Y83.527
G0 X160.952 Y84.962
G0 X158.843 Y84.932
G1 F1500 E90.28747
G0 F6000 X158.563 Y85.182
G1 F1200 X167.543 Y85.182 E90.58614
G1 X167.543 Y73.202 E90.9846
G1 X158.563 Y73.202 E91.28328
G1 X158.563 Y85.182 E91.68173
G1 F1500 E85.18173
G0 F6000 X158.843 Y84.932
G0 X158.783 Y80.728
G0 X160.218 Y80.728
G0 X165.105 Y67.048
G0 X164.063 Y68.09
G0 X151.734 Y55.71
G0 X151.121 Y55.646
G1 F1500 E91.68173
G0 F6000 X151.121 Y56.086
G1 F1200 X180.902 Y85.867 E93.08254
G0 F6000 X180.902 Y86.433
G1 F1200 X167.702 Y73.232 E93.70345
G0 F6000 X167.511 Y73.042
G1 F1200 X150.555 Y56.086 E94.50101
G0 F6000 X149.99 Y56.086
G1 F1200 X166.945 Y73.042 E95.29854
G0 F6000 X166.38 Y73.042
G1 F1200 X149.424 Y56.086 E96.0961
